X: 173
T: No_33_Cypress_Swamp_Hunting_Dance_Song_(h).krn
N: Derived from No_33_Cypress_Swamp_Hunting_Dance_Song_(h).krn
%%abc-version 2.0
%%abcx-abcm2ps-target-version 5.9.1 (29 Sep 2008)
%%abc-creator hum2abc beta
%%abcx-conversion-date 2019/03/15 08:38:45
%%humdrum-veritas 956988820
%%humdrum-veritas-data 2475205761
%%linebreak <none>
%%barnumbers 0
L: 1/8
M: 2/4
K: Eb clef=bass
[K:clef=bass][M:2/4]B,3B, | 
B,B, B,A, ||  
[M:3/4]E,2E, z E,E, ||  
[M:2/4]E,3B,, ||  
[M:3/4]B,,2B,, z E,E, ||  
[M:2/4]E,2G,2 ||  
[M:3/4]E,2E, z E,E, ||  
[M:2/4]E,3B,, ||  
[M:3/4]B,,2B,,2E,E, ||  
[M:2/4]E,2G,2 ||  
[M:3/4]E,2E,2E,E, ||  
[M:2/4]E,3B,, | 
B,,2B,, z ||  
[M:3/4]F,3F, F,F, ||  
[M:2/4]F,A, A,B, | 
B,B, B,A, ||  
[M:3/4]E,2E, z E,E, ||  
[M:2/4]E,3B,, ||  
[M:3/4]B,,2B,, z E,E, ||  
[M:2/4]E,2G,2 ||  
[M:3/4]E,2E, z E,E, ||  
[M:2/4]E,3B,, | 
B,,2B,,2 |]  



